!!!COM: Scriabin, Alexander
!!!OTL@@FR: Prélude
!!!OTL@@EN: Prelude
!!!OPR@@FR: 3 Morceaux
!!!OPR@@EN: 3 Pieces
!!!OPS: 45
!!!ONM: 3
!!!ODT: 1904
!!!AGN: Prelude
**kern	**kern	**dynam
*staff2	*staff1	*staff1/2
*Ipiano	*Ipiano	*
*clefF4	*clefG2	*
*k[b-e-a-]	*k[b-e-a-]	*
*E-:	*E-:	*
*M3/4	*M3/4	*
=1	=1	=1
*^	*^	*
4rc	4F-X	12ccL	4d 4a-	.
.	.	12.an	.	.
.	.	24b-Jk	.	.
4An	4E-	8dd-XL	4d-X 4g	.
.	.	8ccJ	.	.
4B-	12DL	8dnL	4G	.
.	12D-X	.	.	.
.	.	8e-J	.	.
.	12CJ	.	.	.
=2	=2	=2	=2	=2
4An	4C-X	4g	4G 4e-	.
4rc	16rEE	32AnLLL	4rc	.
.	.	32g	.	.
.	16ALL	32e-	.	.
.	.	32g	.	.
.	16e-	32an	.	.
.	.	32gg	.	.
.	16gJJ	32ee-	.	.
.	.	32ggJJJ	.	.
*clefG2	*	*	*	*
4raa	8ee-	8eee- 8ggg	4rc	.
.	8rc	8raa	.	.
*clefF4	*	*	*	*
=3	=3	=3	=3	=3
4rc	4C-X	12gL	4An 4e-	.
.	.	12.en	.	.
.	.	24fJk	.	.
4En	4BB-	8a-XL	4A-X 4d	.
.	.	8gJ	.	.
*	*	*clefF4	*	*
4F	12AAnL	8AnL	4D	.
.	12AA-X	.	.	.
.	.	8B-J	.	.
.	12GGJ	.	.	.
=4	=4	=4	=4	=4
4En	4GG-X	4d	4B-	.
4rc	16rEE	32EnLLL	4rEE	.
.	.	32d	.	.
.	16ELL	32B-	.	.
.	.	32d	.	.
*	*	*clefG2	*	*
.	16B-	32en	.	.
.	.	32dd	.	.
.	16dJJ	32b-	.	.
.	.	32ddJJJ	.	.
4rc	8b-	8bb- 8ddd	4rc	.
.	8rEE	8raa	.	.
=5	=5	=5	=5	=5
2.F-X	2.GG-X	12g-XL	2.B-	.
.	.	12dn	.	.
.	.	12e-J	.	.
.	.	8b-L	.	.
.	.	8a-J	.	.
.	.	[4c	.	.
=6	=6	=6	=6	=6
4F-X	2.CC-X 2.GG-X	16cLL]	4B-	.
.	.	16d-X	.	.
.	.	16dn	.	.
.	.	16e-JJ	.	.
2E-	.	8a--	4.c-X	.
.	.	4g-X	.	.
.	.	8B-	8rc	.
=7	=7	=7	=7	=7
*	*	*	*^	*
2.E-	2.FF	12AnL	4rc	2.A/	.
.	.	12gn	.	.	.
.	.	12dJ	.	.	.
.	.	4.c#X	2cn	.	.
.	.	8g	.	.	.
*	*	*	*v	*v	*
=8	=8	=8	=8	=8
4E-	4BBB- 4FF	8gL	4An 4c#X	.
.	.	8g-XJ	.	.
8D	4rEE	8f	8B- 8d	.
8G	.	4ccn	4d 4a-X	.
8G-XL	4rEE	.	.	.
8FJ	.	8cc	8d 8a-	.
=9	=9	=9	=9	=9
4rc	4F-X	12ccL	4d 4a-	.
.	.	12.an	.	.
.	.	24b-Jk	.	.
4An	4E-	8dd-XL	4d-X 4g	.
.	.	8ccJ	.	.
4B-	12DL	8dnL	4G	.
.	12D-X	.	.	.
.	.	8e-J	.	.
.	12CJ	.	.	.
=10	=10	=10	=10	=10
4An	4C-X	4g	4G 4e-	.
4rc	16rEE	32AnLLL	4rc	.
.	.	32g	.	.
.	16ALL	32e-	.	.
.	.	32g	.	.
.	16e-	32an	.	.
.	.	32gg	.	.
.	16gJJ	32ee-	.	.
.	.	32ggJJJ	.	.
*clefG2	*	*	*	*
4raa	8ee-	8eee- 8ggg	4rc	.
.	8rc	8raa	.	.
*clefF4	*	*	*	*
=11	=11	=11	=11	=11
4rc	4C-X	12gL	4An 4e-	.
.	.	12.en	.	.
.	.	24fJk	.	.
4En	4BB-	8a-XL	4A-X 4d	.
.	.	8gJ	.	.
*	*	*clefF4	*	*
4F	12AAnL	8AnL	4D	.
.	12AA-X	.	.	.
.	.	8B-J	.	.
.	12GGJ	.	.	.
=12	=12	=12	=12	=12
4En	4GG-X	4d	4B-	.
4rc	16rEE	32EnLLL	4rEE	.
.	.	32d	.	.
.	16ELL	32B-	.	.
.	.	32d	.	.
*	*	*clefG2	*	*
.	16B-	32en	.	.
.	.	32dd	.	.
.	16dJJ	32b-	.	.
.	.	32ddJJJ	.	.
4rc	8a-	8bb- 8ddd	4rc	.
.	8rEE	8raa	.	.
=13	=13	=13	=13	=13
2.B--	2.C-X	12e-L	2.e-	.
.	.	12g	.	.
.	.	12a-J	.	.
.	.	8ee-L	.	.
.	.	8dd-XJ	.	.
.	.	[4f	.	.
=14	=14	=14	=14	=14
4B--	2.FF-X 2.C-X	16fLL]	4e-	.
.	.	16g-X	.	.
.	.	16gn	.	.
.	.	16a-JJ	.	.
2A-	.	8dd--	4.f-X	.
.	.	4cc-X	.	.
.	.	8e-	8rc	.
=15	=15	=15	=15	=15
2.A-	2.BB-	12dL	2.dn	.
.	.	12ccn	.	.
.	.	12gJ	.	.
.	.	4.f#X	.	.
.	.	8f#	.	.
*v	*v	*	*	*
=16	=16	=16	=16
4EE- 4BB- 4G	4b-	4e- 4g	.
16r	32B-LLL	4rc	.
.	32g	.	.
16B-LL	32e-	.	.
.	32g	.	.
16e-	32b-	.	.
.	32gg	.	.
16gJJ	32ee-	.	.
.	32ggJJJ	.	.
*clefG2	*	*	*
8ee-L	8eee- 8ggg	4rc	.
*clefF4	*	*	*
8D-XJ	8raa	.	.
=17	=17	=17	=17
*^	*	*	*
2.B--	2.C-X	12e-L	2.e-	.
.	.	12g	.	.
.	.	12a-J	.	.
.	.	8ee-L	.	.
.	.	8dd-XJ	.	.
.	.	[4f	.	.
=18	=18	=18	=18	=18
4B--	2.FF-X 2.C-X	16fLL]	4e-	.
.	.	16g-X	.	.
.	.	16gn	.	.
.	.	16a-JJ	.	.
2A-	.	8dd--	4.f-X	.
.	.	4cc-X	.	.
.	.	8e-	8rc	.
=19	=19	=19	=19	=19
2.A-	2.BB-	12dL	2.dn	.
.	.	12ccn	.	.
.	.	12gJ	.	.
.	.	[2f#X	.	.
*v	*v	*	*	*
=20	=20	=20	=20
2.BBB- 2.BB-	2f#]	2.A- 2.d	.
.	4f#X	.	.
*	*v	*v	*
=21	=21	=21
[2.EEE- [2.EE- [2.BB-	[2.G [2.e- [2.b-	.
=22	=22	=22
2.EEE-] 2.EE-] 2.BB-]	2.G] 2.e-] 2.b-]	.
==	==	==
*-	*-	*-
!!!system-decoration: {(*)}
!!!ENC: Bryan Jacob Bell
!!!END: November 2021 to April 2022
!!!PED: Günter Philipp
!!!PTL: Ausgewählte Klavierwerke (Edition Peters)
